Adwaita++/apps/16/nvidia.svg

<svg height="16" width="16" xmlns="http://www.w3.org/2000/svg">
  <path d="m1.6346752 7.425794s1.44656-2.150411 4.3348799-2.372812v-.780119c-3.1991787.258668-5.9695551 2.988359-5.9695551 2.988359s1.5690749 4.570081 5.9695551 4.988521v-.829261c-3.2292741-.409145-4.3348799-3.994688-4.3348799-3.994688zm4.3348799 2.345917v.759425c-2.4406223-.438859-3.1180354-2.995063-3.1180354-2.995063s1.1718157-1.307893 3.1181116-1.520008v.8333c-.0012 0-.002-.000432-.00307-.000432-1.0214911-.123506-1.8194381.837947-1.8194381.837947s.4472709 1.618523 1.8231714 2.084277m0-6.937865v1.438941c.09392-.0072.1878334-.01333.2822567-.01658 3.6371237-.123505 6.0069647 3.005426 6.0069647 3.005426s-2.721843 3.33457-5.5575147 3.33457c-.2598871 0-.5031874-.0243-.7317143-.06508v.889834c.1954144.02496.3980288.0397.6094508.0397 2.6387942 0 4.5470712-1.357798 6.3949282-2.964816.306371.247209 1.560618.848614 1.818448 1.111854-1.756962 1.481988-5.8515352 2.676661-8.172995 2.676661-.2237574 0-.4386537-.01364-.6498853-.03417v1.250368h10.0297663v-10.666723h-10.0297668zm0 3.182798v-.963662c.092953-.0056.1866067-.01155.2822567-.01463 2.6154804-.08277 4.3313747 2.264469 4.3313747 2.264469s-1.8533426 2.593385-3.840553 2.593385c-.2859901 0-.5424029-.04629-.773185-.124481v-2.921768c1.0182148.123963 1.2231683.577116 1.8352858 1.605266l1.3613782-1.156654s-.9938335-1.313226-2.6691946-1.313226c-.1821114-.000062-.3563676.01285-.5274923.03121" fill="#474747"/>
</svg>

<svg xmlns="http://www.w3.org/2000/svg" width="16" height="16" version="1">
 <defs>
  <style id="current-color-scheme" type="text/css">
   .ColorScheme-Text { color:#5c616c; } .ColorScheme-Highlight { color:#5294e2; } .ColorScheme-ButtonBackground { color:#474747; }
  </style>
 </defs>
 <path style="fill:currentColor" class="ColorScheme-ButtonBackground" d="m 1.6346752,7.425794 c 0,0 1.44656,-2.150411 4.3348799,-2.372812 V 4.272863 C 2.7703764,4.531531 0,7.261222 0,7.261222 c 0,0 1.5690749,4.570081 5.9695551,4.988521 V 11.420482 C 2.740281,11.011337 1.6346752,7.425794 1.6346752,7.425794 Z m 4.3348799,2.345917 v 0.759425 C 3.5289328,10.092277 2.8515197,7.536073 2.8515197,7.536073 c 0,0 1.1718157,-1.307893 3.1181116,-1.520008 v 0.8333 c -0.0012,0 -0.002,-4.32e-4 -0.00307,-4.32e-4 C 4.9450702,6.725427 4.1471232,7.68688 4.1471232,7.68688 c 0,0 0.4472709,1.618523 1.8231714,2.084277 m 0,-6.937865 v 1.438941 c 0.09392,-0.0072 0.1878334,-0.01333 0.2822567,-0.01658 3.6371237,-0.123505 6.0069647,3.005426 6.0069647,3.005426 0,0 -2.721843,3.33457 -5.5575147,3.33457 -0.2598871,0 -0.5031874,-0.0243 -0.7317143,-0.06508 v 0.889834 c 0.1954144,0.02496 0.3980288,0.0397 0.6094508,0.0397 2.6387942,0 4.5470712,-1.357798 6.3949282,-2.964816 0.306371,0.247209 1.560618,0.848614 1.818448,1.111854 -1.756962,1.481988 -5.8515352,2.676661 -8.172995,2.676661 -0.2237574,0 -0.4386537,-0.01364 -0.6498853,-0.03417 V 13.5 H 16 V 2.833277 H 5.9702332 Z m 0,3.182798 V 5.052428 c 0.092953,-0.0056 0.1866067,-0.01155 0.2822567,-0.01463 2.6154804,-0.08277 4.3313747,2.264469 4.3313747,2.264469 0,0 -1.8533426,2.593385 -3.840553,2.593385 -0.2859901,0 -0.5424029,-0.04629 -0.773185,-0.124481 V 6.849403 C 6.9884028,6.973366 7.1933563,7.426519 7.8054738,8.454669 L 9.166852,7.298015 c 0,0 -0.9938335,-1.313226 -2.6691946,-1.313226 -0.1821114,-6.2e-5 -0.3563676,0.01285 -0.5274923,0.03121"/>
</svg>
